svg/u1f69a.svg

<svg viewBox="0 0 128 128" xmlns="http://www.w3.org/2000/svg">
  <path d="M57.99,53.73c0,0-0.53-1.53-1.68-2.06c-1.14-0.53-3.05-0.61-3.05-0.61l-3.2,37.85l2.6,18.68 c0,0,0.76,2.21,2.75,2.29c1.98,0.08,18.47,0,19.92,0c1.45,0,1.91-1.91,1.98-2.75c0.08-0.84,0.05-2.25,0.05-2.25l7.04-0.03 c0,0,0.41,3-0.27,4.89c-0.59,1.64-1.12,2.95-1.11,3.51c0.01,0.8,1.07,1.6,2.29,1.53c1.22-0.08,3.05-1.68,4.27-2.67 c1.22-0.99,20.78-0.76,20.78-0.76s0.94,1.74,1.99,2.79c0.63,0.63,1.65,0.94,2.57,0.94c0.92,0,2.06-1.22,1.83-2.06 c-0.23-0.84-1.27-2.77-1.45-4.65c-0.08-0.85,0.02-3.22,0.44-3.61c0.1-0.09,1.62-0.04,3.04-0.19c2.42-0.25,4.84-3.38,5.14-5.82 c0.31-2.44,0.08-10.15,0.08-10.15L57.99,53.73z" fill="#B3AFAF"/>
  <path d="M52.02,96.11h72.03c0,0,0.17,2.02-0.18,3.32c-0.31,1.15-0.93,1.91-0.93,1.91l-70.51-0.01L52.02,96.11 z" fill="#9A9A9A"/>
  <path d="M26.75,92.84L11.5,97.56l-7.62-2.63c0,0,0.27-14.34,0.36-15.79c0.09-1.45,0.45-2.72,1.82-3.63 c1.36-0.91,5.17-3.18,5.17-3.18s11.71-18.79,12.71-20.15c1-1.36,2.23-3.02,5.14-3.29s20.87-0.05,22.5,0.04 c1.63,0.09,2.85,0.83,2.85,4.37c0,3.54-0.09,30.56-0.18,31.92c-0.09,1.36-6.9,6.35-6.9,6.35L26.75,92.84z" fill="#E0E0E0"/>
  <path d="M48.95,110.03c0,0,1.46,0.04,2.47-0.1s2.53-1.15,2.6-3.54c0.04-1.42,0.23-21.17,0.23-21.17 l-27.2,0.06l-8.8,9.63L3.88,94.93c0,0-0.06,5.65-0.02,7.16c0.04,1.52,7.86,4.83,7.86,4.83L48.95,110.03z" fill="#DC0D28"/>
  <path d="M3.86,102.09h16.38c0,0,3.51-7,13.6-6.88c14.82,0.18,15.12,14.81,15.12,14.81s-36.43,0-38.6,0 s-5.27-0.72-6.06-3.46C3.63,104.26,3.86,102.09,3.86,102.09z" fill="#B10A1B"/>
  <path d="M13.89,76.26c0,0,0-1.63-1.07-1.69s-2.25,0.61-3.32,1.52c-1.13,0.96-1.69,1.83-1.91,2.59 c-0.34,1.13-0.06,2.14,1.69,2.19c2.14,0.07,36.12-0.15,37.69-0.28c1.97-0.17,3.15-1.01,3.09-2.48c-0.05-1.41-1.07-1.86-5.29-1.91 S13.89,76.26,13.89,76.26z" fill="#FFFFFF"/>
  <path d="M4.2,81.03c0,0,10.21-0.32,10.43-0.07c0.31,0.37,0.37,5.19,0.26,5.92c-0.11,0.73-1.07,1.24-2.25,1.29 s-8.61,0.17-8.61,0.17L4.2,81.03z" fill="#FDEDC5"/>
  <path d="M46.24,74.51c1.58,0,2.14-1.8,2.14-3.04s0-14.74,0-15.69c0-1.24-0.79-1.91-3.26-2.03 c-2.48-0.11-13.78,0.02-15.02,0.06c-1.91,0.06-3.21,0.9-4.95,3.32c-1.13,1.57-8.1,13.11-8.66,14.06c-0.56,0.96-1.24,3.49,1.69,3.54 C21.21,74.79,46.24,74.51,46.24,74.51z" fill="#5F6369"/>
  <path d="M19.63,71.87c-0.06,0,24.69,0,25.2,0c0.51,0,0.96-0.56,0.96-1.24s0.04-11.3,0.06-11.93 c0.06-1.74-1.24-2.14-2.36-2.08c-1.13,0.06-12.51,0.02-13.18,0.05c-1.29,0.06-2.57,1.79-3.69,3.5 C25.27,62.24,19.63,71.87,19.63,71.87z" fill="#AFE3FB"/>
  <path d="M20.02,73.73c0.11,2.53,4.16,4.61,5.18,4.67c1.01,0.06,1.63-1.91,1.74-4.56S25.99,69,25.14,69 C24.3,69,19.93,71.59,20.02,73.73z" fill="#5F6369"/>
  <path d="M20.9,111.62c0.08,5,4.06,12.19,12.72,12.24c8.66,0.05,13.16-6.59,12.88-13.4 c-0.28-6.92-5.65-11.81-13.38-11.59C25.89,99.09,20.79,104.71,20.9,111.62z" fill="#4E433D"/>
  <path d="M27.09,111.33c0.04,2.63,2.13,6.43,6.69,6.46s6.76-3.27,6.62-6.86c-0.15-3.65-3.06-6.37-6.88-6.31 C29.72,104.67,27.04,107.68,27.09,111.33z" fill="#C8C8C8"/>
  <path d="M86.9,111.62c0.08,5,4.06,12.19,12.72,12.24c8.66,0.05,13.16-6.59,12.88-13.4 c-0.28-6.92-5.65-11.81-13.38-11.59C91.89,99.09,86.79,104.71,86.9,111.62z" fill="#4E433D"/>
  <path d="M93.09,111.33c0.04,2.63,2.13,6.43,6.69,6.46c4.55,0.03,6.76-3.27,6.62-6.86 c-0.15-3.65-3.06-6.37-6.88-6.31C95.72,104.67,93.04,107.68,93.09,111.33z" fill="#C8C8C8"/>
  <path d="M56.87,28.62c0-2.62,1.15-3.67,3.25-3.56c2.1,0.1,59.65-0.21,61.53-0.21s2.62,1.99,2.62,3.14 c0,1.15-0.36,59.49-0.28,60.62c0.07,1.13-0.24,2.7-2.23,2.91s-61.01,0.1-62.27,0s-2.83-1.15-2.83-2.62 C56.66,87.42,56.87,29.98,56.87,28.62z" fill="#D16E1D"/>
  <path d="M62.11,30.92c0,1.36-0.42,52.31-0.42,53.57c0,1.26,0.63,2.73,2.31,2.73c1.68,0,53.25,0.1,54.3,0 c1.05-0.1,1.68-0.73,1.78-2.41c0.1-1.68,0.1-52.83,0.1-54.51c0-1.68-1.68-1.78-3.46-1.78s-52.2,0.1-52.94,0.21 C63.05,28.82,62.11,29.56,62.11,30.92z" fill="#F5B03A"/>
  <path d="M74.45,89c-0.06-18.45-0.19-61.48,0.02-62.65l1.48,0.27l1.49,0.18c-0.14,1.65-0.07,38.09,0.01,62.19 L74.45,89z" fill="#D16E1D"/>
  <rect height="62.58" fill="#D16E1D" width="3" x="89.75" y="26.52"/>
  <rect height="62.27" fill="#D16E1D" width="3" x="104.89" y="26.57"/>
</svg>

<svg viewBox="0 0 128 128" xmlns="http://www.w3.org/2000/svg">
  <defs/>
  <path d="M57.99,53.73 C57.99,53.73 57.46,52.2 56.31,51.67 C55.17,51.14 53.26,51.06 53.26,51.06 L50.06,88.91 L52.66,107.59 C52.66,107.59 53.42,109.8 55.41,109.88 C57.39,109.96 73.88,109.88 75.33,109.88 C76.78,109.88 77.24,107.97 77.31,107.13 C77.39,106.29 77.36,104.88 77.36,104.88 L84.4,104.85 C84.4,104.85 84.81,107.85 84.13,109.74 C83.54,111.38 83.01,112.69 83.02,113.25 C83.03,114.05 84.09,114.85 85.31,114.78 C86.53,114.7 88.36,113.1 89.58,112.11 C90.8,111.12 110.36,111.35 110.36,111.35 C110.36,111.35 111.3,113.09 112.35,114.14 C112.98,114.77 114,115.08 114.92,115.08 C115.84,115.08 116.98,113.86 116.75,113.02 C116.52,112.18 115.48,110.25 115.3,108.37 C115.22,107.52 115.32,105.15 115.74,104.76 C115.84,104.67 117.36,104.72 118.78,104.57 C121.2,104.32 123.62,101.19 123.92,98.75 C124.23,96.31 124,88.6 124,88.6 L57.99,53.73 Z" fill="#B3AFAF"/>
  <path d="M52.02,96.11 L124.05,96.11 C124.05,96.11 124.22,98.13 123.87,99.43 C123.56,100.58 122.94,101.34 122.94,101.34 L52.43,101.33 L52.02,96.11 Z" fill="#9A9A9A"/>
  <path d="M26.75,92.84 L11.5,97.56 L3.88,94.93 C3.88,94.93 4.15,80.59 4.24,79.14 C4.33,77.69 4.69,76.42 6.06,75.51 C7.42,74.6 11.23,72.33 11.23,72.33 C11.23,72.33 22.94,53.54 23.94,52.18 C24.94,50.82 26.17,49.16 29.08,48.89 C31.99,48.62 49.95,48.84 51.58,48.93 C53.21,49.02 54.43,49.76 54.43,53.3 C54.43,56.84 54.34,83.86 54.25,85.22 C54.16,86.58 47.35,91.57 47.35,91.57 L26.75,92.84 Z" fill="#E0E0E0"/>
  <path d="M48.95,110.03 C48.95,110.03 50.41,110.07 51.42,109.93 C52.43,109.79 53.95,108.78 54.02,106.39 C54.06,104.97 54.25,85.22 54.25,85.22 L27.05,85.28 L18.25,94.91 L3.88,94.93 C3.88,94.93 3.82,100.58 3.86,102.09 C3.9,103.61 11.72,106.92 11.72,106.92 L48.95,110.03 Z" fill="#DC0D28"/>
  <path d="M3.86,102.09 L20.24,102.09 C20.24,102.09 23.75,95.09 33.84,95.21 C48.66,95.39 48.96,110.02 48.96,110.02 C48.96,110.02 12.53,110.02 10.36,110.02 C8.19,110.02 5.09,109.3 4.3,106.56 C3.63,104.26 3.86,102.09 3.86,102.09 Z" fill="#B10A1B"/>
  <path d="M13.89,76.26 C13.89,76.26 13.89,74.63 12.82,74.57 C11.75,74.51 10.57,75.18 9.5,76.09 C8.37,77.05 7.81,77.92 7.59,78.68 C7.25,79.81 7.53,80.82 9.28,80.87 C11.42,80.94 45.4,80.72 46.97,80.59 C48.94,80.42 50.12,79.58 50.06,78.11 C50.01,76.7 48.99,76.25 44.77,76.2 C40.55,76.15 13.89,76.26 13.89,76.26 Z" fill="#FFFFFF"/>
  <path d="M4.2,81.03 C4.2,81.03 14.41,80.71 14.63,80.96 C14.94,81.33 15,86.15 14.89,86.88 C14.78,87.61 13.82,88.12 12.64,88.17 C11.46,88.22 4.03,88.34 4.03,88.34 L4.2,81.03 Z" fill="#FDEDC5"/>
  <path d="M46.24,74.51 C47.82,74.51 48.38,72.71 48.38,71.47 C48.38,70.23 48.38,56.73 48.38,55.78 C48.38,54.54 47.59,53.87 45.12,53.75 C42.64,53.64 31.34,53.77 30.1,53.81 C28.19,53.87 26.89,54.71 25.15,57.13 C24.02,58.7 17.05,70.24 16.49,71.19 C15.93,72.15 15.25,74.68 18.18,74.73 C21.21,74.79 46.24,74.51 46.24,74.51 Z" fill="#5F6369"/>
  <path d="M19.63,71.87 C19.57,71.87 44.32,71.87 44.83,71.87 C45.34,71.87 45.79,71.31 45.79,70.63 C45.79,69.95 45.83,59.33 45.85,58.7 C45.91,56.96 44.61,56.56 43.49,56.62 C42.36,56.68 30.98,56.64 30.31,56.67 C29.02,56.73 27.74,58.46 26.62,60.17 C25.27,62.24 19.63,71.87 19.63,71.87 Z" fill="#AFE3FB"/>
  <path d="M20.02,73.73 C20.13,76.26 24.18,78.34 25.2,78.4 C26.21,78.46 26.83,76.49 26.94,73.84 C27.05,71.19 25.99,69 25.14,69 C24.3,69 19.93,71.59 20.02,73.73 Z" fill="#5F6369"/>
  <path d="M20.9,111.62 C20.98,116.62 24.96,123.81 33.62,123.86 C42.28,123.91 46.78,117.27 46.5,110.46 C46.22,103.54 40.85,98.65 33.12,98.87 C25.89,99.09 20.79,104.71 20.9,111.62 Z" fill="#4E433D"/>
  <path d="M27.09,111.33 C27.13,113.96 29.22,117.76 33.78,117.79 C38.34,117.82 40.54,114.52 40.4,110.93 C40.25,107.28 37.34,104.56 33.52,104.62 C29.72,104.67 27.04,107.68 27.09,111.33 Z" fill="#C8C8C8"/>
  <path d="M86.9,111.62 C86.98,116.62 90.96,123.81 99.62,123.86 C108.28,123.91 112.78,117.27 112.5,110.46 C112.22,103.54 106.85,98.65 99.12,98.87 C91.89,99.09 86.79,104.71 86.9,111.62 Z" fill="#4E433D"/>
  <path d="M93.09,111.33 C93.13,113.96 95.22,117.76 99.78,117.79 C104.33,117.82 106.54,114.52 106.4,110.93 C106.25,107.28 103.34,104.56 99.52,104.62 C95.72,104.67 93.04,107.68 93.09,111.33 Z" fill="#C8C8C8"/>
  <path d="M56.87,28.62 C56.87,26 58.02,24.95 60.12,25.06 C62.22,25.16 119.77,24.85 121.65,24.85 C123.53,24.85 124.27,26.84 124.27,27.99 C124.27,29.14 123.91,87.48 123.99,88.61 C124.06,89.74 123.75,91.31 121.76,91.52 C119.77,91.73 60.75,91.62 59.49,91.52 C58.23,91.42 56.66,90.37 56.66,88.9 C56.66,87.42 56.87,29.98 56.87,28.62 Z" fill="#D16E1D"/>
  <path d="M62.11,30.92 C62.11,32.28 61.69,83.23 61.69,84.49 C61.69,85.75 62.32,87.22 64,87.22 C65.68,87.22 117.25,87.32 118.3,87.22 C119.35,87.12 119.98,86.49 120.08,84.81 C120.18,83.13 120.18,31.98 120.18,30.3 C120.18,28.62 118.5,28.52 116.72,28.52 C114.94,28.52 64.52,28.62 63.78,28.73 C63.05,28.82 62.11,29.56 62.11,30.92 Z" fill="#F5B03A"/>
  <path d="M74.45,89 C74.39,70.55 74.26,27.52 74.47,26.35 L75.95,26.62 L77.44,26.8 C77.3,28.45 77.37,64.89 77.45,88.99 L74.45,89 Z" fill="#D16E1D"/>
  <path d="M89.75,26.52 L92.75,26.52 L92.75,89.1 L89.75,89.1 L89.75,26.52 Z" fill="#D16E1D"/>
  <path d="M104.89,26.57 L107.89,26.57 L107.89,88.84 L104.89,88.84 L104.89,26.57 Z" fill="#D16E1D"/>
</svg>
